X: 2110
Q: "Strathspey."
M: C
L: 1/16
K: G
uD2 |\
vG4 uB3uG (Bd3) g4 | G4 (cB)AG FA3A3uB |\
vG4 uB3uG (Bd3) g4 | vc3uA cBAG DG3 G2 ::\
(udc) |\
[1 Bd3d3g (ba)gf g4 | vc3vAud3uc BG3G2 :|\
[2 d3Bc3A B3GA3G | F3Dd3c BG3 G2 :]


